X:1
T:Pilgrim, Watch and Pray
T:Pilgrim, Watch and Pray
T:Theodore Edson Perkins
T:Frances Jane (Fanny) Crosby, 1864
T:Public Domain Courtesy of the Cyber Hymnal™
C:Theodore Edson Perkins
Z:Public Domain
Z:Courtesy of the Cyber Hymnal™
%%score ( 1 2 ) ( 3 4 )
L:1/8
Q:1/4=110
M:4/4
K:Ab
V:1 treble 
V:2 treble 
V:3 bass 
V:4 bass 
V:1
 ([Ec][DB]) [CA]2 [CA]2 [CE]2 | [DF]2 [CE]2 (FG) [CA]2 | [EB]3 [EB] [EB]2 [CA]2 | %3
w: 1.~Soft- * ly on the|breath of even- * ing|Comes the ten- der|
w: 2.~Pear- * ly dews like|tears are fall- * ing,|Gent- ly on the|
w: 3.~’Tis * the hour where|hal- lowed feel- * ings|Chase our doubts and|
w: 4.~Though * temp- ta- tions|dark op- press * thee,|Je- sus guides thee|
 [Ec]2 [EB]2 [EB]4 | ([Ec][DB]) [CA]2 [CA]2 [CE]2 | [DF]2 [CE]2 (FG) [CA]2 | %6
w: sigh of day;|Lone- * ly heart, by|sor- row la- * den,|
w: sleep- ing flowers;|Stars * like an- gel|eyes are beam- * ing|
w: fears a- way;|’Tis * the hour for|calm de- vo- * tion;|
w: on thy way;|He * will hear thy|light- est whis- * per,|
 [DB]3 [CA] [Ec]2 [DB]2 | [CA]6 z2 ||"^Refrain" [Ae]4 [Ae]4 | ([Ec][DB]) [CA]6 | [Ec]4 [Ec]4 | %11
w: ’Tis the time to|pray.||||
w: From ce- les- tial|bowers.||||
w: Pil- grim, watch and|pray.|Wea- ry|pil- * grim,|cease thy|
w: Pil- grim, watch and|pray.||||
 (BA) [DF]6 | [CE]2 [CA]2 [EA]2 [EB]2 | [Ec]2 [Ee]2 [EB]2 [Ec]2 | [CA]2 [DF]2 E2 [Ec]2 | %15
w: ||||
w: ||||
w: mourn- * ing,|Wea- ry pil- grim,|cease thy mourn- ing,|Rest be- yond the|
w: ||||
 [DB]4 [CA]4 |] %16
w: |
w: |
w: ri- ver.|
w: |
V:2
 x8 | x4 D2 x2 | x8 | x8 | x8 | x4 D2 x2 | x8 | x8 || x8 | x8 | x8 | F2 x6 | x8 | x8 | x4 E2 x2 | %15
 x8 |] %16
V:3
 [A,,A,]2 [A,,A,]2 [A,,A,]2 [A,,A,]2 | [A,,A,]2 [A,,A,]2 [A,,A,]2 [A,,A,]2 | %2
 [E,G,]3 [E,G,] [E,G,]2 [E,A,]2 | [E,A,]2 [E,G,]2 [E,G,]4 | [A,,A,]2 [A,,A,]2 [A,,A,]2 [A,,A,]2 | %5
 [A,,A,]2 [A,,A,]2 [A,,A,]2 [A,,A,]2 | [E,G,]3 [E,A,] [E,A,]2 [E,G,]2 | [A,,A,]6 z2 || %8
 [A,C]4 [A,C]4 | [A,,A,]2 [A,,A,]6 | [A,,A,]4 [A,,A,]4 | [D,A,]2 [D,A,]6 | %12
 [A,,A,]2 [A,,A,]2 [C,A,]2 [E,G,]2 | A,2 [C,A,]2 [E,G,]2 [C,A,]2 | %14
 [F,A,]2 [D,A,]2 [C,A,]2 [A,,A,]2 | [E,G,]4 [A,,A,]4 |] %16
V:4
 x8 | x8 | x8 | x8 | x8 | x8 | x8 | x8 || x8 | x8 | x8 | x8 | x8 | A,2 x6 | x8 | x8 |] %16

